X:1
T:Lord of the Gospel Harvest
T:Lord of the Gospel Harvest
T:William Batchelder Bradbury
T:William Batchelder Bradbury, 1867
T:Public Domain Courtesy of the Cyber Hymnal™
C:William Batchelder Bradbury
Z:Public Domain
Z:Courtesy of the Cyber Hymnal™
%%score ( 1 2 ) ( 3 4 )
L:1/8
Q:1/4=100
M:2/4
K:G
V:1 treble 
V:2 treble 
V:3 bass 
V:4 bass 
V:1
 [GB][GB]/[GB]/ [GB][GB] | [Gc]2 [GB]2 | [FA][FA] [EG][FA] | [GB]2 [Gc]/[Gc]/[Gc] | %4
w: Lord of the Gos- pel|har- vest|Send more lab- ’rers|forth in- to Thy|
 [GB]2 [FA][FA] | [EG]2 [FA]2 | [GB]4 | [GB]2 [FA][EG] | [DF][FA] [EG][CE] | [B,D]4 | %10
w: field, Send more|lab- ’rers|forth;|More pas- tors|teach Thy flock to|tend,|
 [GB]2 [FA][EG] | [DB][DA] [DB][G^c] | [Fd]3 [Fd] | [Gd]>[Gd] [Gd][Gd] | [Ge][Ge] [Ge][Ge] | %15
w: More work- men|raise Thy house to|build, His|work and place to|each as- sign, And|
 [Gd]>[Gd] [Gd][GB] | [FA]2 [EG]2 | [Fd]3 [Fd] | [Gd]2 G2 | [Ac]3 [GB] | [EA]2 [FA]2 | G4 |] %22
w: clothe the Word with|power di-|vine, And|clothe the|Word with|power di-|vine.|
V:2
 x4 | x4 | x4 | x4 | x4 | x4 | x4 | x4 | x4 | x4 | x4 | x4 | x4 | x4 | x4 | x4 | x4 | x4 | x2 G2 | %19
 x4 | x4 | G4 |] %22
V:3
 [G,D][G,D]/[G,D]/ [G,D][G,D] | [C,E]2 [G,D]2 | [D,D][D,D] [E,B,][D,D] | [G,D]2 [C,E]/[C,E]/[E,E] | %4
 [G,D]2 [D,C][D,C] | [E,B,]2 [D,D]2 | [G,D]4 | z4 | z4 | z4 | [G,D]2 [D,C][E,B,] | %11
 G,[F,A,] G,[E,A,] | [D,A,]3 [D,A,] | [G,B,]>[G,B,] [G,B,][G,B,] | [C,C][C,C] [C,C][C,C] | %15
 [G,B,]>[G,B,] [G,B,][G,D] | [D,D]2 [E,B,]2 | [D,D]3 [D,A,] | [G,B,]2 [E,B,]2 | [F,D]3 [G,D] | %20
 [C,C]2 [D,C]2 | [G,,B,]4 |] %22
V:4
 x4 | x4 | x4 | x4 | x4 | x4 | x4 | x4 | x4 | x4 | x4 | G,G, x2 | x4 | x4 | x4 | x4 | x4 | x4 | %18
 x4 | x4 | x4 | x4 |] %22

